!!!COM:	Busnoys, Antoine
!!!CDT:	~1430///-1492/11/06
!!!OTL:	M'a vostre cueur
!!!AGN:	Song; Chanson
!!!SCT:	Bus3042
!!!SCA:	Bus3042
!!!voices:	3
**kern	**kern	**kern
*staff3	*staff2	*staff1
*Ivox	*Ivox	*Ivox
*I"Contratenor	*I"Tenor	*I"Superius
*I'Ct	*I'T	*I'S
*>[A,B,B1,B,B2]	*>[A,B,B1,B,B2]	*>[A,B,B1,B,B2]
*>A	*>A	*>A
*clefF4	*clefGv2	*clefG2
*k[b-]	*k[]	*k[b-]
*M2/1	*M2/1	*M2/1
*met(C|)	*met(C|)	*met(C|)
=1-	=1-	=1-
!	!	!LO:TX:Z=34:t=Virelai
1D	0r	0r
1F	.	.
=2	=2	=2
1E	0r	1r
[1D	.	1d
=3	=3	=3
2D]	0r	1f
4C	.	.
4BB-	.	.
1C	.	1e
=4	=4	=4
2D	1D	1.d
2.BB-	.	.
.	1F	.
4C	.	.
2D	.	4c
.	.	4B-
=5	=5	=5
1AA	1E	1c
[1BB-	[1D	2d
.	.	[2f
=6	=6	=6
1BB-]	2D]	2f]
.	4C	4e
.	4BB-i	4d
1AA	1C	1e
=7	=7	=7
2BB-	2D	1d
2.D	1F	.
.	.	1a
4E	.	.
2F	4E	.
.	4D	.
=8	=8	=8
1C	1E	1g
1r	1D	[1f
=9	=9	=9
1D	1.A	2f]
.	.	4e
.	.	4d
2AA	.	2c
[2BB-	2F	[2d
=10	=10	=10
4BB-]	1G	2d]
4AA	.	.
2GG	.	4c
.	.	4B-
1D	2.F	2.A
.	4D	4B-
=11	=11	=11
1AA	2E	2.c
.	2F	.
.	.	4d
2GG	2G	2e
2FF	2A	[2f
=12	=12	=12
1BB-	1D	4f]
.	.	4g
.	.	4f
.	.	8eL
.	.	8dJ
1AA	1E	2.c#i
.	.	4Bni
=13	=13	=13
1A	1D	0d
2D	1r	.
[2G	.	.
=14	=14	=14
2G]	2.d	1r
4F	.	.
4E	4e	.
1D	2.f	1a
.	4e	.
=15	=15	=15
1F	2c	1a
.	1d	.
1G	.	1b-
.	4c	.
.	4B-i	.
=16	=16	=16
1F	1A	1cc
2G	1r	2b-
[2F	.	[2a
=17	=17	=17
2F]	1c	2a]
2G	.	4g
.	.	4f
1A	1c	1e
=18	=18	=18
2r	1d	1f
2D	.	.
1E	1B	1g
=19	=19	=19
1A	1c	1e
1D	1d	2.f
.	.	4g
=20	=20	=20
1r	2c	2a
.	2d	2b-
2C	2e	2cc
[2G	[2d	[2b-
=21	=21	=21
2G]	2d]	4b-]
.	.	4a
2A	2c	1a
1E	1B	.
.	.	2g
=22	=22	=22
2F	[0A	2.a
1D	.	.
.	.	4g
.	.	2.f
4C	.	.
4BB-	.	8eL
.	.	8dJ
=23	=23	=23
[0AA	0A_	[0c#i
=24	=24	=24
1AA]	1A]	1c#]
2D	1r	1d
[2G	.	.
=25	=25	=25
4G]	0r	1d
4F	.	.
4E	.	.
4D	.	.
1E	.	1c#i
=26	=26	=26
2r	1D	2d
1F	.	1a
.	1D	.
2D	.	4g
.	.	4f
=27	=27	=27
1AA	1C	1e
1r	2D	2d
.	[2A	[2f
=28	=28	=28
0AA	2A]	2f]
.	4G	4e
.	4F	4d
.	2E	1c
.	[2F	.
=29	=29	=29
1BB-	2F]	1d
.	4E	.
.	4D	.
2.AA	2C	[1e
.	[2c	.
4BB-	.	.
=30	=30	=30
2C	2c]	2e]
2D	4B-i	4d
.	4A	4c
1E	1G	1B-
=31	=31	=31
0F	0A	1A
.	.	1c
=32	=32	=32
1D	1B	1d
1C	1c	1e
=33	=33	=33
1D	1A	1f
1r	1G	[1g
=34	=34	=34
0C	1E	2g]
.	.	2e
.	1G	[1e
=35	=35	=35
0D	0F	1e]
.	.	1d
=36	=36	=36
1.AA	1E	0e
.	[1A	.
2BB-	.	.
=37	=37	=37
2.C	1A]	0r
4D	.	.
1BB-	1G	.
=38	=38	=38
1AA	1A	0a
2r	1c	.
2AA	.	.
=39	=39	=39
1E	1B	1g
[1AA	2A	1a
.	[2A	.
=40	=40	=40
1AA]	2A]	1cc
.	4G	.
.	4F	.
1E	2.G	1b-
.	4E	.
=41	=41	=41
2r	1F	2a
2D	.	1a
2F	1D	.
4E	.	4g
4D	.	4f
=42	=42	=42
1C	1E	2.g
.	.	4e
2r	2D	1f
2D	[2F	.
=43	=43	=43
1BB-	4F]	1d
.	4G	.
.	4F	.
.	8EL	.
.	8DJ	.
1AA	1C#i	1e
=44	=44	=44
0BB-	1r	2d
.	.	2.f
.	1D	.
.	.	4g
.	.	4f
.	.	8eL
.	.	8dJ
=45	=45	=45
1AA	1E	2.c
.	.	4d
2BB-	2D	2f
[2C	[2G	[2e
=46	=46	=46
1C]	4G]	4e]
.	4F	4d
.	2E	4c
.	.	4B-
1D	2.F	2.A
.	4G	4B-
=47	=47	=47
2AA	2A	2c
2BB-	2D	1d
1AA	1E	.
.	.	2c#i
=48	=48	=48
0Al	0Dl	0dl
!!LO:LB:i:g=z
=49||!|:	=49||	=49||!|:
*>B	*>B	*>B
*clefF4	*clefGv2	*clefG2
*k[b-]	*k[b-]	*k[]
*M2/1	*M2/1	*M2/1
*met(C|)	*met(C|)	*met(C|)
!!section: Se vostre doux cueur
!!!OMD: Se vostre doux cueur
1AA	0r	0r
2BB-	.	.
[2D	.	.
=50	=50	=50
2D]	1r	0r
2C#i	.	.
[1D	1A	.
=51	=51	=51
1D]	2B-	0r
.	1d	.
1E	.	.
.	2c#i	.
=52	=52	=52
1.D	1d	1a
.	1d	2b-i
4C	.	[2dd
4BB-	.	.
=53	=53	=53
1AA	1e	2dd]
.	.	2cc#i
[1BB-	1d	1dd
=54	=54	=54
2BB-]	1.f	1.dd
2C	.	.
2.D	.	.
.	4e	4cc
4E	4d	4b-i
=55	=55	=55
0F	1.c	1a
.	.	1a
.	[2d	.
=56	=56	=56
1G	2d]	1b-i
.	4c	.
.	4B-	.
1F	1A	2.cc
.	.	4b-i
=57	=57	=57
2G	2B-	2g
2F	2c	2.a
1D	1d	.
.	.	4b-i
.	.	4a
.	.	8gL
.	.	8fJ
=58	=58	=58
1AA	1c	2e
.	.	2a
2r	2d	2bni
[2A	[2e	[2cc
=59	=59	=59
2A]	2e]	4cc]
.	.	4a
2A	2c	1a
1E	1Bni	.
.	.	2g
=60	=60	=60
2.F	[0A	2.a
4E	.	4g
2C	.	2e
[2D	.	[2f
=61	=61	=61
2D]	0A]	2f]
4C	.	4e
4BB-	.	4d
1AA	.	1c
=62	=62	=62
2D	1r	0r
2.F	.	.
.	1D	.
4E	.	.
[2D	.	.
=63	=63	=63
4D]	1.F	0r
4C	.	.
2BB-	.	.
2AA	.	.
[2D	4E	.
.	4D	.
=64	=64	=64
2D]	1E	1r
2C#i	.	.
2D	1D	1d
[2F	.	.
=65	=65	=65
2F]	1.A	1.f
2.D	.	.
4E	.	.
2F	4G	4e
.	4F	4d
=66	=66	=66
1C	2G	1e
.	1G	.
1r	.	1d
.	4F	.
.	4E	.
=67	=67	=67
2D	2F	1.a
2.F	2.D	.
4E	4C	.
2F	2D	4g
.	.	4f
=68	=68	=68
2C	4E	2g
.	4D	.
1E	4C	1g
.	4BB-	.
.	1C	.
4D	.	4f
4C	.	4e
=69	=69	=69
0BB-	2D	2f
.	2.F	2.d
.	4G	4c
.	4F	2d
.	8EL	.
.	8DJ	.
=70	=70	=70
0AA	2C	4e
.	.	4d
.	2.E	4c#i
.	.	4B
.	.	1c#i
.	4D	.
.	2E	.
=71	=71	=71
1r	2F	2d
.	2.A	2.f
[1AA	.	.
.	4B-	4g
.	4A	4f
.	8GL	8eL
.	8FJ	8dJ
=72	=72	=72
1AA]	2.E	2.c
.	4F	4d
2GG	2G	2e
[2FF	[2A	[2f
=73	=73	=73
2FF]	4A]	4f]
.	4B-	4g
2.F	2c	2.a
.	1d	.
4D	.	4b-i
4F	.	4a
4G	.	8gL
.	.	8fJ
!!LO:REP:start=1
=74	=74	=74
*>B1	*>B1	*>B1
0A	0c#i	0e
!!LO:REP:end=1
!!LO:REP:start=2
=75:|!	=75:|!	=75:|!
*>B2	*>B2	*>B2
1A	2.c	2.e
.	4A	4f
2G	2B-	2g
[2F	2c	[2a
!!LO:REP:open=2
=76	=76	=76
2F]	2d	2a]
2E	2.e	2.g
2C	.	.
.	4d	4f
2D	4c	4e
.	4B-	4d
=77	=77	=77
2AA	2c	2e
2BB-	1d	2d
1AA	.	1e
.	2c#i	.
=78	=78	=78
0Dl	0dl	0dl
==	==	==
*-	*-	*-
!!!RDF**kern: l=long note in original notation
!!!RDF**kern: i=editorial accidental
!!!ENC:	Chris Gage 03-28-2015
!!!END:	2015/04/13/
!!!EED:	Jesse Rodin
!!!EEV:	2015/05/10/
!!!ONB:	Translated from MusicXML and edited on 2015/05/10/ by Craig Sapp
!!muse2ps: C^@{COM}^i2I150v95,95,150Q16
